X: 21
T: Master Crowley's
Z: Carifrann
S: https://thesession.org/tunes/281#setting52097
R: reel
M: 4/4
L: 1/8
K: Edor
|:BE E2 BEGE| D2 A^G ADFD|BE E2 BEGE|FADE FE E2|
BE E2 BEGE|D2 (3FED A^GAD| BE E2 BEGE| FAdA FE E2:|
|:Bbab fgeg|fdad bdaf|Bbab f3 e|dBAF GE E2|
Bbab fgeg|fdad bdaf|EFGA B3 d|AFdF FE E2:|

